!!!OTL: DER ZIEGLER AUF DER HUETTEN SASS
!!!ARE: Europa, Mitteleuropa, Deutschland
!!!SCT: E0901
!!!YEM: Copyright 1995, estate of Helmut Schaffrath.
**kern
*ICvox
*Ivox
*M4/4
*k[b-]
*F:
{4cc
=1
4cc
4cc
4cc
4b-
=2
4a
4a
4g}
{4b-
=3
4a
4f
4g
4g
=4
2f
4r}
{4f
=5
4b-
4b-
4cc
4cc
=6
4dd
4dd
4cc}
{4dd
=7
4cc
4b-
4cc
4g
=8
4a}
{4dd
4.cc
8b-
=9
4a
4f
2g
=10
2f
4r}
==
!!!AGN: Ehestands - Lied, betrogener Ehemann
!!!ONB: ESAC (Essen Associative Code) Database: ERK2
!!!AMT: simple quadruple
!!!AIN: vox
!!!EED: Helmut Schaffrath
!!!EEV: 1.0
*-
